download-lock-outline.svg

<svg fill="currentColor" viewBox="0 0 24 24"><path d="M22 16a1.08 1.08 0 0 1 1 1v4a1.08 1.08 0 0 1-1 1h-5a1.08 1.08 0 0 1-1-1v-4a1.08 1.08 0 0 1 1-1v-1.5a2.5 2.5 0 0 1 5 0zm-1 0v-1.5a1.5 1.5 0 0 0-3 0V16zM13 5v6h1.17L12 13.17 9.83 11H11V5zm2-2H9v6H5l7 7 7-7h-4zm-1 15H5v2h9Z"/></svg>

<svg  viewBox="0 0 24 24" fill="currentColor"><path  d="M22 16A1.08 1.08 0 0 1 23 17V21A1.08 1.08 0 0 1 22 22H17A1.08 1.08 0 0 1 16 21V17A1.08 1.08 0 0 1 17 16V14.5A2.5 2.5 0 0 1 22 14.5V16M21 16V14.5A1.5 1.5 0 0 0 18 14.5V16H21M13 5V11H14.17L12 13.17L9.83 11H11V5H13M15 3H9V9H5L12 16L19 9H15V3M14 18H5V20H14Z"/></svg>
